X:76
T:Dela Lou Rivotel
R:Bourre
M:3/8
L:1/8
N:La Bourre 4th edition 1929, page 77
Z:Steve Mansfield www.lesession.co.uk May 2012
K:Bb
F || B/ B/ B B | c f f | e d c | 
d B F | B/ B/ B B | c f f | e d c | 
B2 F || B A/ B/ c/ d/ | c f f | e d c | 
d B F | B A/ B/ c/ d/ | c f f | e d c | B3 |] 
<end>
<start>
